icons/refresh-24.svg

<svg xmlns="http://www.w3.org/2000/svg" viewBox="0 0 24 24"><title>refresh-24</title><g id="icons"><path d="M12,3a8.9811,8.9811,0,0,1,7.46423,4H16V8h5V3H20V6.01025A9.99489,9.99489,0,0,0,2,12H3A9.01047,9.01047,0,0,1,12,3Z"/><path d="M21,12A8.99015,8.99015,0,0,1,4.5318,17H8V16H3v5H4V17.97113A9.98564,9.98564,0,0,0,22,12Z"/></g></svg>

<svg xmlns="http://www.w3.org/2000/svg" viewBox="0 0 24 24"><path d="M12 3a8.981 8.981 0 017.464 4H16v1h5V3h-1v3.01A9.995 9.995 0 002 12h1a9.01 9.01 0 019-9zm9 9a8.99 8.99 0 01-16.468 5H8v-1H3v5h1v-3.029A9.986 9.986 0 0022 12z"/></svg>
